X: 16620
T: Handy Man, The
R: hornpipe
M: 4/4
K: Gmajor
|:BDGB ADFA|(3GAB GA (3FED DE|FGAB cdeg|fgef dedc|
BDGB ADFA|(3GAB GA FGAB|cdfe dcAF|1 (3GAG FA G2 dc:|2 (3GAG FA G2 (3ABc||
|:dedB GABd|cBAG FADA|GBdB ceag|
[1 fgaf ~d2 Bc|dedB cecA|(3Bcd BG FGAB|cdfe dcAF|(3GAG FA G2 (3ABc:|
[2 fgaf dega|bagf edcA|(3 Bcd BG FGAB|cdfe dcAF|(3GAG FA G2 dc||

